packages/foundations/assets/icons/functional/images/layout/grid_12_filled.svg

<svg width="12" height="12" viewBox="0 0 12 12" fill="none" xmlns="http://www.w3.org/2000/svg">
<g clip-path="url(#clip0_2209_4241)">
<path fill-rule="evenodd" clip-rule="evenodd" d="M9.60067 5.39719H7.19942C6.8684 5.39719 6.60005 5.12884 6.60005 4.79781V2.39656C6.60005 2.2376 6.6632 2.08515 6.7756 1.97274C6.88801 1.86034 7.04046 1.79719 7.19942 1.79719H9.60067C9.9317 1.79719 10.2 2.06554 10.2 2.39656V4.79781C10.2 5.12884 9.9317 5.39719 9.60067 5.39719ZM9.60067 10.2028H7.19942C6.8684 10.2028 6.60005 9.93418 6.60005 9.60281V7.20094C6.60005 7.04181 6.6632 6.8892 6.7756 6.77667C6.88801 6.66415 7.04046 6.60094 7.19942 6.60094H9.60067C9.75964 6.60094 9.91209 6.66415 10.0245 6.77667C10.1369 6.8892 10.2 7.04181 10.2 7.20094V9.60469C10.199 9.93533 9.93097 10.2028 9.60067 10.2028ZM4.7988 5.39719H2.39942C2.0684 5.39719 1.80005 5.12884 1.80005 4.79781V2.39656C1.80005 2.06554 2.0684 1.79719 2.39942 1.79719H4.80067C5.1317 1.79719 5.40005 2.06554 5.40005 2.39656V4.79781C5.40005 4.9571 5.33664 5.10984 5.22383 5.2223C5.11102 5.33475 4.95809 5.39768 4.7988 5.39719ZM4.7988 10.2028H2.39942C2.0684 10.2028 1.80005 9.93418 1.80005 9.60281V7.20094C1.80005 6.86957 2.0684 6.60094 2.39942 6.60094H4.80067C4.95964 6.60094 5.11209 6.66415 5.2245 6.77667C5.3369 6.8892 5.40005 7.04181 5.40005 7.20094V9.60469C5.39955 9.76382 5.33593 9.91623 5.22317 10.0284C5.11042 10.1406 4.95776 10.2033 4.7988 10.2028Z" fill="#1A1C1F"/>
</g>
<defs>
<clipPath id="clip0_2209_4241">
<rect width="12" height="12" fill="white"/>
</clipPath>
</defs>
</svg>

<svg xmlns="http://www.w3.org/2000/svg" width="12" height="12" fill="none"><g clip-path="url(#a)"><path fill="#1A1C1F" fill-rule="evenodd" d="M9.6 5.397H7.2a.6.6 0 0 1-.6-.6v-2.4a.6.6 0 0 1 .6-.6h2.4a.6.6 0 0 1 .6.6v2.4a.6.6 0 0 1-.6.6m0 4.806H7.2a.6.6 0 0 1-.6-.6V7.2a.6.6 0 0 1 .6-.6h2.4a.6.6 0 0 1 .6.6v2.404a.6.6 0 0 1-.6.598M4.8 5.397h-2.4a.6.6 0 0 1-.599-.6v-2.4a.6.6 0 0 1 .6-.6h2.4a.6.6 0 0 1 .6.6v2.4a.6.6 0 0 1-.601.6m0 4.806h-2.4a.6.6 0 0 1-.599-.6V7.2a.6.6 0 0 1 .6-.6h2.4a.6.6 0 0 1 .6.6v2.404a.6.6 0 0 1-.601.598" clip-rule="evenodd"/></g><defs><clipPath id="a"><path fill="#fff" d="M0 0h12v12H0z"/></clipPath></defs></svg>
